public/Microsoft.svg

<svg width="257" height="78" viewBox="0 0 257 78" fill="none" xmlns="http://www.w3.org/2000/svg">
<g clip-path="url(#clip0_9_33599)">
<mask id="mask0_9_33599" style="mask-type:luminance" maskUnits="userSpaceOnUse" x="19" y="16" width="219" height="47">
<path d="M237.103 16H19V62.574H237.103V16Z" fill="white"/>
</mask>
<g mask="url(#mask0_9_33599)">
<path d="M41.158 16H19V38.156H41.158V16Z" fill="#F25022"/>
<mask id="mask1_9_33599" style="mask-type:luminance" maskUnits="userSpaceOnUse" x="19" y="16" width="219" height="47">
<path d="M237.103 16H19V62.574H237.103V16Z" fill="white"/>
</mask>
<g mask="url(#mask1_9_33599)">
<path d="M43.4219 16H65.5779C65.5779 23.3853 65.5779 30.7704 65.5779 38.155C58.1939 38.155 50.8092 38.155 43.4239 38.155C43.4239 30.771 43.4239 23.386 43.4239 16" fill="#80BA01"/>
<path d="M218.802 24.4409C219.845 23.826 221.005 23.4356 222.207 23.2946C223.41 23.1536 224.628 23.265 225.785 23.6219C225.804 24.9889 225.785 26.3589 225.794 27.7289C225.257 27.4424 224.667 27.2661 224.06 27.2105C223.454 27.1548 222.842 27.2209 222.261 27.4049C221.825 27.609 221.449 27.922 221.169 28.3136C220.889 28.7051 220.714 29.1623 220.661 29.6409C220.56 30.834 220.531 32.0322 220.574 33.2289C222.91 33.2339 225.245 33.2289 227.583 33.2289C227.6 31.7109 227.563 30.1939 227.602 28.6769C229.193 28.2229 230.764 27.7159 232.346 27.2409C232.357 29.2409 232.326 31.2409 232.363 33.2409C233.94 33.2179 235.524 33.2349 237.103 33.2299V37.1209C235.516 37.0559 233.932 37.1049 232.342 37.0969C232.349 39.3349 232.342 41.5709 232.342 43.8099C232.368 45.0489 232.275 46.2939 232.42 47.5289C232.431 47.9065 232.53 48.2764 232.71 48.6085C232.89 48.9407 233.146 49.2258 233.456 49.4409C234.038 49.718 234.684 49.8325 235.325 49.7721C235.966 49.7117 236.58 49.4787 237.099 49.0979V53.0279C235.714 53.5988 234.212 53.829 232.719 53.6989C232.006 53.6781 231.304 53.5142 230.655 53.2168C230.006 52.9195 229.424 52.4947 228.942 51.9679C227.98 50.6435 227.501 49.0288 227.586 47.3939C227.575 43.9619 227.586 40.5279 227.586 37.0939C225.248 37.0939 222.911 37.0939 220.574 37.0939C220.571 42.4819 220.571 47.8695 220.574 53.2569H215.781C215.781 47.8702 215.781 42.4842 215.781 37.0989C214.669 37.0779 213.558 37.1039 212.445 37.0819C212.451 35.8049 212.455 34.5219 212.445 33.2419C213.551 33.2179 214.657 33.2279 215.767 33.2359C215.848 31.5359 215.589 29.7859 216.095 28.1289C216.524 26.6138 217.485 25.3042 218.801 24.4399" fill="#777777"/>
<path d="M116.201 24.7209C116.687 24.6427 117.184 24.6879 117.648 24.8522C118.112 25.0164 118.526 25.2945 118.854 25.6609C119.223 26.0828 119.452 26.6079 119.512 27.1648C119.572 27.7218 119.458 28.2836 119.187 28.7739C118.861 29.3002 118.379 29.7117 117.808 29.951C117.237 30.1903 116.605 30.2454 116.001 30.1089C115.377 29.9963 114.811 29.6678 114.404 29.1807C113.997 28.6936 113.773 28.0788 113.773 27.4439C113.781 26.7739 114.032 26.1294 114.478 25.6296C114.924 25.1297 115.537 24.8084 116.201 24.7249" fill="#777777"/>
<path d="M79.4844 25.3151H86.4534C88.6234 30.8224 90.7988 36.3281 92.9794 41.8321C93.5344 43.2091 94.0524 44.6041 94.6344 45.9701C97.4264 39.0871 100.255 32.2221 103.024 25.3311C105.26 25.2951 107.496 25.322 109.732 25.317C109.726 34.6304 109.726 43.9441 109.732 53.2581C108.12 53.2581 106.509 53.2721 104.898 53.2481C104.912 46.3761 104.898 39.5031 104.904 32.6281C104.904 32.3191 104.898 32.0111 104.876 31.7021C104.782 31.8446 104.697 31.9937 104.623 32.1481C101.854 39.1851 99.0334 46.2001 96.2794 53.2421C95.1334 53.2831 93.9794 53.2421 92.8364 53.2641C89.9784 46.2271 87.1574 39.1761 84.3144 32.1361C84.2414 31.9901 84.1604 31.8471 84.0754 31.7101C84.0154 34.7221 84.0654 37.7361 84.0484 40.7471C84.0524 44.9171 84.0524 49.0877 84.0484 53.2591C82.5264 53.2591 81.0054 53.2591 79.4854 53.2591C79.4854 43.9431 79.4854 34.6281 79.4854 25.3141" fill="#777777"/>
<path d="M129.395 33.2119C131.724 32.5616 134.188 32.5689 136.514 33.2329C136.992 33.3629 137.451 33.5538 137.881 33.8009C137.855 35.3279 137.881 36.8569 137.867 38.3839C136.331 37.1342 134.369 36.5314 132.397 36.7029C131.616 36.7742 130.858 37.0076 130.173 37.3884C129.487 37.7691 128.889 38.2887 128.416 38.9139C127.302 40.5338 126.848 42.5178 127.147 44.4609C127.26 45.987 127.952 47.4122 129.081 48.4449C129.703 48.953 130.419 49.3325 131.189 49.5615C131.959 49.7905 132.766 49.8644 133.565 49.7789C135.126 49.571 136.607 48.963 137.865 48.0139C137.876 49.4609 137.857 50.9079 137.875 52.3529C135.87 53.4352 133.593 53.9066 131.324 53.7089C128.998 53.6172 126.783 52.6947 125.08 51.1089C123.302 49.3216 122.266 46.9282 122.18 44.4089C121.991 41.7914 122.656 39.1833 124.074 36.9749C125.357 35.1446 127.237 33.8169 129.391 33.2189" fill="#777777"/>
<path d="M181.737 32.9072C183.97 32.542 186.261 32.7802 188.371 33.5972C188.371 35.0638 188.371 36.5325 188.371 38.0032C186.895 36.9854 185.133 36.4645 183.34 36.5162C182.88 36.5034 182.425 36.6141 182.022 36.8367C181.619 37.0593 181.283 37.3858 181.049 37.7822C180.876 38.2101 180.851 38.6837 180.978 39.1275C181.105 39.5714 181.376 39.9602 181.749 40.2322C183.11 41.1412 184.728 41.5271 186.136 42.3421C187.297 42.9109 188.256 43.8222 188.882 44.9531C189.411 46.0649 189.575 47.3154 189.351 48.526C189.128 49.7366 188.527 50.8457 187.636 51.6951C185.766 53.2212 183.37 53.9488 180.967 53.7201C179.29 53.6372 177.641 53.2588 176.095 52.6022C176.102 51.0562 176.085 49.5142 176.102 47.9692C177.389 48.9186 178.876 49.5603 180.449 49.8451C181.557 50.0834 182.711 49.9788 183.757 49.5452C183.979 49.4091 184.171 49.2291 184.321 49.0163C184.471 48.8035 184.576 48.5623 184.63 48.3075C184.683 48.0527 184.685 47.7896 184.633 47.5344C184.581 47.2792 184.478 47.0372 184.33 46.8232C183.741 46.2179 183.026 45.7501 182.236 45.4531C180.781 44.9103 179.393 44.1999 178.102 43.3362C177.217 42.6575 176.586 41.6998 176.312 40.6181C176.092 39.818 176.038 38.9816 176.151 38.1597C176.265 37.3378 176.545 36.5476 176.973 35.8371C177.53 35.0534 178.239 34.3901 179.059 33.8868C179.878 33.3836 180.79 33.0507 181.741 32.9081" fill="#777777"/>
<path d="M148.595 33.5391C149.267 33.1639 150.011 32.9363 150.778 32.8717C151.545 32.807 152.316 32.9067 153.042 33.1641C153.036 34.7641 153.042 36.3641 153.037 37.9571C152.073 37.3481 150.933 37.0804 149.8 37.1971C149.138 37.3116 148.515 37.5916 147.991 38.0113C147.466 38.4309 147.057 38.9765 146.8 39.5971C146.251 40.8867 146.017 42.2882 146.117 43.6861V53.2631H141.394C141.39 46.5918 141.39 39.9195 141.394 33.2461C142.968 33.2261 144.545 33.2341 146.125 33.2461C146.118 34.3921 146.125 35.5381 146.119 36.6861C146.571 35.3932 147.442 34.2886 148.595 33.5481" fill="#777777"/>
<path d="M114.212 33.2378C115.8 33.2318 117.393 33.2139 118.979 33.2469C118.96 39.9169 118.979 46.5899 118.972 53.2599H114.216C114.209 46.5859 114.209 39.9118 114.216 33.2378" fill="#777777"/>
<path d="M172.899 37.9071C172.062 36.0372 170.575 34.5344 168.714 33.6771C166.547 32.779 164.172 32.499 161.855 32.8681C159.399 33.1346 157.142 34.3412 155.555 36.2351C154.199 37.9948 153.426 40.1339 153.343 42.3541C153.053 44.9748 153.673 47.6155 155.099 49.8331C156.425 51.6906 158.402 52.9803 160.636 53.4451C162.486 53.8295 164.395 53.8295 166.244 53.4451C168.426 53.0085 170.378 51.8017 171.744 50.0451C173.008 48.353 173.739 46.3231 173.844 44.2141C174.052 42.0624 173.725 39.8926 172.891 37.8981M168.263 47.0911C167.811 48.1402 166.966 48.9702 165.909 49.4031C164.658 49.862 163.296 49.9224 162.009 49.5761C161.364 49.3958 160.763 49.0821 160.246 48.655C159.729 48.228 159.308 47.6972 159.009 47.0971C158.304 45.5274 158.052 43.7917 158.281 42.0861C158.36 40.5117 159.019 39.0223 160.132 37.9061C161.007 37.1384 162.121 36.6987 163.284 36.6621C164.011 36.5926 164.744 36.6779 165.435 36.9125C166.126 37.1471 166.759 37.5257 167.293 38.0231C168.326 39.1719 168.913 40.6528 168.947 42.1971C169.115 43.859 168.884 45.5368 168.272 47.0911" fill="#777777"/>
<path d="M211.278 38.4869C210.538 36.4726 209.069 34.8095 207.161 33.8269C204.937 32.8122 202.462 32.4761 200.048 32.8609C198.096 33.0783 196.251 33.8688 194.748 35.1329C192.984 36.7319 191.862 38.9177 191.59 41.2829C191.213 43.6275 191.473 46.0302 192.343 48.2399C193.277 50.3958 195.027 52.0938 197.21 52.9619C199.369 53.751 201.7 53.9482 203.961 53.5329C206.287 53.1671 208.39 51.9372 209.85 50.0889C211.316 48.1221 212.08 45.7202 212.019 43.2679C212.079 41.641 211.826 40.0177 211.275 38.4859M206.951 45.2749C206.801 46.3455 206.374 47.3584 205.713 48.2139C204.996 49.0422 203.999 49.5785 202.913 49.7209C201.757 49.9162 200.571 49.7874 199.484 49.3489C198.329 48.8302 197.423 47.8811 196.958 46.7039C196.43 45.3132 196.235 43.8183 196.389 42.3389C196.444 40.8907 196.952 39.4962 197.841 38.3519C198.279 37.8486 198.816 37.4401 199.418 37.1516C200.019 36.863 200.674 36.7005 201.341 36.6739C202.719 36.5294 204.099 36.9363 205.178 37.8059C206.101 38.6414 206.713 39.7654 206.914 40.9939C207.179 42.4071 207.192 43.8562 206.952 45.2739" fill="#777777"/>
<path d="M19 40.417C26.3853 40.417 33.771 40.417 41.157 40.417C41.157 47.8023 41.157 55.1877 41.157 62.573H19V40.417Z" fill="#02A4EF"/>
<path d="M43.4229 40.4199C50.8069 40.4199 58.1915 40.4199 65.5769 40.4199V62.5759H43.4219C43.4219 55.1913 43.4219 47.8066 43.4219 40.4219" fill="#FFB902"/>
</g>
</g>
</g>
<defs>
<clipPath id="clip0_9_33599">
<rect width="257" height="78" fill="white"/>
</clipPath>
</defs>
</svg>

<svg xmlns="http://www.w3.org/2000/svg" width="257" height="78" fill="none" viewBox="0 0 257 78"><g clip-path="url(#a)"><mask id="b" width="219" height="47" x="19" y="16" maskUnits="userSpaceOnUse" style="mask-type:luminance"><path fill="#fff" d="M237.103 16H19v46.574h218.103z"/></mask><g mask="url(#b)"><path fill="#f25022" d="M41.158 16H19v22.156h22.158z"/><mask id="c" width="219" height="47" x="19" y="16" maskUnits="userSpaceOnUse" style="mask-type:luminance"><path fill="#fff" d="M237.103 16H19v46.574h218.103z"/></mask><g mask="url(#c)"><path fill="#80ba01" d="M43.422 16h22.156v22.155H43.424V16"/><path fill="#777" d="M218.802 24.44a8.7 8.7 0 0 1 6.983-.818c.019 1.367 0 2.737.009 4.107a4.57 4.57 0 0 0-3.533-.324 2.8 2.8 0 0 0-1.6 2.236 30 30 0 0 0-.087 3.588c2.336.005 4.671 0 7.009 0 .017-1.518-.02-3.035.019-4.552 1.591-.454 3.162-.961 4.744-1.436.011 2-.02 4 .017 6 1.577-.023 3.161-.006 4.74-.011v3.89c-1.587-.064-3.171-.015-4.761-.023.007 2.238 0 4.474 0 6.713.026 1.239-.067 2.484.078 3.719a2.41 2.41 0 0 0 1.036 1.912 3.57 3.57 0 0 0 3.643-.343v3.93a9.36 9.36 0 0 1-4.38.67 5.33 5.33 0 0 1-3.777-1.73 7.15 7.15 0 0 1-1.356-4.574c-.011-3.432 0-6.866 0-10.3h-7.012q-.004 8.082 0 16.163h-4.793V37.099c-1.112-.021-2.223.005-3.336-.017.006-1.277.01-2.56 0-3.84 1.106-.024 2.212-.014 3.322-.006.081-1.7-.178-3.45.328-5.107a6.55 6.55 0 0 1 2.706-3.69M116.201 24.72a2.94 2.94 0 0 1 2.653.94 2.73 2.73 0 0 1 .333 3.114 2.975 2.975 0 0 1-3.186 1.335 2.71 2.71 0 0 1-2.228-2.665 2.776 2.776 0 0 1 2.428-2.72M79.484 25.315h6.97q3.255 8.26 6.525 16.517c.555 1.377 1.073 2.772 1.655 4.138 2.792-6.883 5.621-13.748 8.39-20.639 2.236-.036 4.472-.009 6.708-.014q-.009 13.97 0 27.941c-1.612 0-3.223.014-4.834-.01.014-6.872 0-13.745.006-20.62 0-.309-.006-.617-.028-.926a4 4 0 0 0-.253.446c-2.769 7.037-5.59 14.052-8.344 21.094-1.146.041-2.3 0-3.443.022-2.858-7.037-5.679-14.088-8.522-21.128a5 5 0 0 0-.239-.426c-.06 3.012-.01 6.026-.027 9.037q.006 6.255 0 12.512h-4.563V25.314M129.395 33.212a13.1 13.1 0 0 1 7.119.02c.478.13.937.322 1.367.569-.026 1.527 0 3.056-.014 4.583a7.62 7.62 0 0 0-5.47-1.681 5.63 5.63 0 0 0-3.981 2.21 7.72 7.72 0 0 0-1.269 5.548 6 6 0 0 0 1.934 3.984 6.06 6.06 0 0 0 4.484 1.334 9.14 9.14 0 0 0 4.3-1.765c.011 1.447-.008 2.894.01 4.339a11.66 11.66 0 0 1-6.551 1.356 9.72 9.72 0 0 1-6.244-2.6 9.98 9.98 0 0 1-2.9-6.7 12.14 12.14 0 0 1 1.894-7.434 9.64 9.64 0 0 1 5.317-3.756M181.737 32.907a12.7 12.7 0 0 1 6.634.69v4.406a8.43 8.43 0 0 0-5.031-1.487 2.58 2.58 0 0 0-2.291 1.266 2.07 2.07 0 0 0 .7 2.45c1.361.91 2.979 1.295 4.387 2.11a6.3 6.3 0 0 1 2.746 2.611 5.84 5.84 0 0 1-1.246 6.742 9.17 9.17 0 0 1-6.669 2.025 14.3 14.3 0 0 1-4.872-1.118c.007-1.546-.01-3.088.007-4.633a10.5 10.5 0 0 0 4.347 1.876 5.58 5.58 0 0 0 3.308-.3 1.914 1.914 0 0 0 .573-2.722 5.7 5.7 0 0 0-2.094-1.37 20 20 0 0 1-4.134-2.117 4.96 4.96 0 0 1-1.79-2.718 6.13 6.13 0 0 1 .661-4.78 7.14 7.14 0 0 1 4.768-2.93M148.595 33.54a5.4 5.4 0 0 1 4.447-.376c-.006 1.6 0 3.2-.005 4.793a5.1 5.1 0 0 0-3.237-.76 3.98 3.98 0 0 0-3 2.4 8.8 8.8 0 0 0-.683 4.09v9.576h-4.723q-.006-10.006 0-20.017c1.574-.02 3.151-.012 4.731 0-.007 1.146 0 2.292-.006 3.44a6.14 6.14 0 0 1 2.476-3.138M114.212 33.238c1.588-.006 3.181-.024 4.767.009-.019 6.67 0 13.343-.007 20.013h-4.756q-.01-10.011 0-20.022M172.899 37.907a8.47 8.47 0 0 0-4.185-4.23 12.7 12.7 0 0 0-6.859-.809 9.57 9.57 0 0 0-6.3 3.367 10.68 10.68 0 0 0-2.212 6.12c-.29 2.62.33 5.26 1.756 7.478a9.07 9.07 0 0 0 5.537 3.612 13.8 13.8 0 0 0 5.608 0 9.27 9.27 0 0 0 5.5-3.4 10.63 10.63 0 0 0 2.1-5.83 13.1 13.1 0 0 0-.953-6.317m-4.628 9.193a4.36 4.36 0 0 1-2.354 2.312 6.45 6.45 0 0 1-3.9.173 4.8 4.8 0 0 1-3-2.479 9.23 9.23 0 0 1-.728-5.01 6.37 6.37 0 0 1 1.851-4.18 5.02 5.02 0 0 1 3.152-1.245 5.16 5.16 0 0 1 4.009 1.361 6.46 6.46 0 0 1 1.654 4.174 10.5 10.5 0 0 1-.675 4.894M211.278 38.487a8.56 8.56 0 0 0-4.117-4.66 12.43 12.43 0 0 0-7.113-.966 9.95 9.95 0 0 0-5.3 2.272 9.8 9.8 0 0 0-3.158 6.15 13.25 13.25 0 0 0 .753 6.957 8.88 8.88 0 0 0 4.867 4.722c2.159.789 4.49.986 6.751.57a9.36 9.36 0 0 0 5.889-3.443 10.96 10.96 0 0 0 2.169-6.821c.06-1.627-.193-3.25-.744-4.782m-4.324 6.789a6.2 6.2 0 0 1-1.238 2.939 4.47 4.47 0 0 1-2.8 1.507 6.34 6.34 0 0 1-3.429-.372 4.85 4.85 0 0 1-2.526-2.645 9.5 9.5 0 0 1-.569-4.365 6.93 6.93 0 0 1 1.452-3.987 4.9 4.9 0 0 1 3.5-1.678 5.24 5.24 0 0 1 3.837 1.132 5.5 5.5 0 0 1 1.736 3.188c.265 1.413.278 2.862.038 4.28"/><path fill="#02a4ef" d="M19 40.417h22.157v22.156H19z"/><path fill="#ffb902" d="M43.423 40.42h22.154v22.156H43.422V40.422"/></g></g></g><defs><clipPath id="a"><path fill="#fff" d="M0 0h257v78H0z"/></clipPath></defs></svg>
